X:1
T:James Gibb editions
T:I gave my life for thee - Barnby
%%score [ ( 1 2 ) ( 3 4 ) ]
L:1/8
Q:1/4=80
M:4/4
K:F
V:1 treble nm="Midi_74"
V:2 treble 
V:3 bass nm="Midi_74"
V:4 bass 
V:1
"^St Olave (66. 84. 66).""^Very slow, smooth and sustained""^I gave my life for thee""^Joseph Barnby\n(1838-96)""^Frances Ridley Havergal\n(1836-79)" F2 | %1
 F2 E2 D2 C2 | A6 || A2 | A2 G2 F2 E2 | F6 || F2 | B2 B2 A2 ^G2 |[M:4/4] A2 =B2 c2 d2 | e4 =B4 | %10
 c4- || c2 c2 | f2 c2 B2 A2 | !fermata!d2!mf! D2 E2 F2 | F4 E4 | F6 || F4 F4 |] %17
V:2
 C2 | B,2 B,2 B,2 B,2 | A,6 || C2 | D2 D2 C2 C2 | C6 || F2 | F2 F2 E2 E2 |[M:4/4] E2 E2 E2 ^F2 | %9
 G4 F4 | E4 || E4 | F2 F2 _E2 E2 | D2 D2 D2 D2 | C4 C4 | C6 || D4 C4 |] %17
V:3
 A,2 | G,2 G,2 F,2 G,2 | F,6 || F,2 | F,2 B,2 A,2 G,2 | A,6 || A,2 | D2 D2 C2"^cresc." =B,2 | %8
[M:4/4] C2"^1 I gave My life for thee,\nMy precious blood I shed,\nThat thou might'st ransomed be,\nAnd quickened from the dead;\nI gave My life for thee,\nWhat hast thou giv'n for Me?\n\n2 My Father's house of light,\nMy glory circled throne, \nI left for earthly night,\nFor wanderings sad and lone;\nI left it all for thee,\nHast thou left aught for Me?" D2 E2 C2 | %9
 C4 D4 | C4 || C4 | %12
 C2 C2"^3 I suffered much for thee,\nMore than thy tongue can tell,\nOf bitt'rest agony,\nTo rescue thee from hell;\nI've borne it all for thee,\nWhat hast thou borne for Me?\n\n4 And I have brought to thee,\nDown from My home above,\nSalvation full and free,\nMy pardon and My love;\nI bring rich gifts to thee,\nWhat hast thou brought to Me?\n\n" C2 F,2 | %13
 F,2 F,2"^dim." G,2 ^G,2 | A,4!p! B,4 | A,6 || B,4 A,4 |] %17
V:4
 F,2 | C,2 C,2 D,2 E,2 | F,6 || F,2 | B,,2 B,,2 C,2 C,2 | F,6 || F,2 | D,2 D,2 E,2 E,2 | %8
[M:4/4] A,2 A,2 A,2 A,2 | G,4 G,4 | C4 || B,4 | A,2 A,2 F,2 F,2 | !fermata!B,,2 B,,2 =B,,2 B,,2 | %14
 C,4 C,4 | F,6 || B,,4 F,,4 |] %17

